X: 130252
T: Maids of Ardagh
Z: B.Black
R: polka
M: 2/4
L: 1/8
K: D
FA BA | de f2 | fe/f/ ge | ed BA |
FA BA | de f2 | fe/f/ ge | ed d2 :|
K: A
ee ce | fe a2 | ee/e/ ce | fe c/B/A |
ee ce | fe a2 | ee/e/ dB |1 BA A2 :|2\
BA A=G ||
